Yaru++/status/symbolic/notifications-disabled-symbolic.svg

<svg height="16" width="16" xmlns="http://www.w3.org/2000/svg"><g fill="#808080"><path d="m8 .99023438a1 1 0 0 0 -1 1.00000002v.0097656c-.6033821.1559763-1.1385765.4670756-1.5898438.8710938l7.1425778 7.1425782c-.538848-1.6790603-.552734-4.0234376-.552734-4.0234376-.002-1.822-1.235-3.5342344-3-3.9902344v-.0097656a1 1 0 0 0 -1-1.00000002zm-4.0136719 5.41015622c-.0242802.9911273-.2016781 4.6695704-1.6464843 5.2109374-.0160001.01-.0220626.029969-.0390626.042969a.726.726 0 0 0 -.1621093.175781c-.018.027-.0387344.047172-.0527344.076172a.738.738 0 0 0 -.0859375.333984c0 .415.335.75.75.75h7.826172zm2.0800781 7.5898434a2 2 0 0 0 1.9335938 1.5 2 2 0 0 0 1.9355469-1.5z" opacity=".5"/><path d="m26.51015-5.18862-1.06 1.061 14 14 1.062-1.062z" transform="translate(-24.95015 5.62762)"/></g></svg>

<?xml version="1.0" encoding="UTF-8" standalone="no"?>
<svg
   xmlns:dc="http://purl.org/dc/elements/1.1/"
   xmlns:cc="http://creativecommons.org/ns#"
   xmlns:rdf="http://www.w3.org/1999/02/22-rdf-syntax-ns#"
   xmlns:svg="http://www.w3.org/2000/svg"
   xmlns="http://www.w3.org/2000/svg"
   xmlns:sodipodi="http://sodipodi.sourceforge.net/DTD/sodipodi-0.dtd"
   xmlns:inkscape="http://www.inkscape.org/namespaces/inkscape"
   width="16"
   height="16"
   version="1.1"
   id="svg6"
   sodipodi:docname="notifications-disabled-symbolic.svg"
   inkscape:version="0.92.4 (5da689c313, 2019-01-14)">
  <metadata
     id="metadata12">
    <rdf:RDF>
      <cc:Work
         rdf:about="">
        <dc:format>image/svg+xml</dc:format>
        <dc:type
           rdf:resource="http://purl.org/dc/dcmitype/StillImage" />
        <dc:title></dc:title>
      </cc:Work>
    </rdf:RDF>
  </metadata>
  <defs
     id="defs10" />
  <sodipodi:namedview
     pagecolor="#ffffff"
     bordercolor="#808080"
     borderopacity="1"
     objecttolerance="10"
     gridtolerance="10"
     guidetolerance="10"
     inkscape:pageopacity="0"
     inkscape:pageshadow="2"
     inkscape:window-width="1920"
     inkscape:window-height="1016"
     id="namedview8"
     showgrid="false"
     inkscape:zoom="14.75"
     inkscape:cx="0.30508475"
     inkscape:cy="8"
     inkscape:window-x="0"
     inkscape:window-y="27"
     inkscape:window-maximized="1"
     inkscape:current-layer="g4" />
  <g
     color="#808080"
     transform="translate(-293 211)"
     id="g4">
    <path
       style="fill:#808080;fill-opacity:1;opacity:0.5"
       d="M 8 0.99023438 A 1 1 0 0 0 7 1.9902344 L 7 2 C 6.3966179 2.1559763 5.8614235 2.4670756 5.4101562 2.8710938 L 12.552734 10.013672 C 12.013886 8.3346117 12 5.9902344 12 5.9902344 C 11.998 4.1682344 10.765 2.456 9 2 L 9 1.9902344 A 1 1 0 0 0 8 0.99023438 z M 3.9863281 6.4003906 C 3.9620479 7.3915179 3.78465 11.069961 2.3398438 11.611328 C 2.3238437 11.621328 2.3177812 11.641297 2.3007812 11.654297 A 0.726 0.726 0 0 0 2.1386719 11.830078 C 2.1206719 11.857078 2.0999375 11.87725 2.0859375 11.90625 A 0.738 0.738 0 0 0 2 12.240234 C 2 12.655234 2.335 12.990234 2.75 12.990234 L 10.576172 12.990234 L 3.9863281 6.4003906 z M 6.0664062 13.990234 A 2 2 0 0 0 8 15.490234 A 2 2 0 0 0 9.9355469 13.990234 L 6.0664062 13.990234 z "
       transform="translate(293,-211)"
       id="path2" />
    <g
       id="g820"
       transform="translate(268.04985,-205.37238)"
       style="fill:#808080;fill-opacity:1">
      <path
         id="path818"
         d="m 26.51015,-5.18862 -1.06,1.061 14,14 1.062,-1.062 z"
         inkscape:connector-curvature="0"
         style="fill:#808080;fill-opacity:1" />
    </g>
  </g>
</svg>
